**harm	**harte	**silbe	**rhyme	**timestamp	**phrase	**leadinstrument	**kern
*M4/4	*M4/4	*	*	*	*	*	*
*	*	*	*	*	*	*	*
*	*	*	*	*	*	*	*
*A-:	*A-:	*	*	*	*	*	*A-:
*	*	*	*	*	*	*	*
*	*	*	*	*	*	*	*
1r;	N	.	.	0	.	r	1r;
=1	=1	=1	=1	=1	=1	=1	=1
*>Letter>A	*>Letter>A	*>Letter>A	*>Letter>A	*>Letter>A	*>Letter>A	*>Letter>A	*>Letter>A
*>Label>Intro	*>Label>Intro	*>Label>Intro	*>Label>Intro	*>Label>Intro	*>Label>Intro	*>Label>Intro	*>Label>Intro
1I	A-:maj	.	.	0.163	newline	r	1A- 1cc 1ee-
=2	=2	=2	=2	=2	=2	=2	=2
1IV	D-:maj	.	.	2.101	.	r	1D- 1f 1a-
=3	=3	=3	=3	=3	=3	=3	=3
*>Letter>B	*>Letter>B	*>Letter>B	*>Letter>B	*>Letter>B	*>Letter>B	*>Letter>B	*>Letter>B
*>Label>Chorus	*>Label>Chorus	*>Label>Chorus	*>Label>Chorus	*>Label>Chorus	*>Label>Chorus	*>Label>Chorus	*>Label>Chorus
1I	A-:maj	I	.	4.04	newline	voice	1A- 1cc 1ee-
.	.	don't	.	.	.	.	.
.	.	blame	.	.	.	.	.
.	.	you	.	.	.	.	.
.	.	at	.	.	.	.	.
.	.	all	.	.	.	.	.
=4	=4	=4	=4	=4	=4	=4	=4
1-VII	G-:maj	_	.	5.979	.	voice	1G- 1b- 1dd-
.	.	'cause	.	.	.	.	.
.	.	you	.	.	.	.	.
.	.	played	.	.	.	.	.
.	.	it	.	.	.	.	.
.	.	cool	A	.	.	.	.
=5	=5	=5	=5	=5	=5	=5	=5
1I	A-:maj	_	.	7.918	.	voice	1A- 1cc 1ee-
.	.	_	.	.	.	.	.
.	.	_	.	.	.	.	.
.	.	no	.	.	.	.	.
.	.	_	.	.	.	.	.
=6	=6	=6	=6	=6	=6	=6	=6
1I	A-:maj	_	.	9.857	.	voice	1A- 1cc 1ee-
.	.	_	.	.	.	.	.
.	.	.	.	.	.	.	.
.	.	.	.	.	.	.	.
=7	=7	=7	=7	=7	=7	=7	=7
1I	A-:maj	You	.	11.796	newline	voice	1A- 1cc 1ee-
.	.	don't	.	.	.	.	.
.	.	owe	.	.	.	.	.
.	.	me	.	.	.	.	.
.	.	a	.	.	.	.	.
.	.	thing	.	.	.	.	.
=8	=8	=8	=8	=8	=8	=8	=8
1-VII	G-:maj	_	.	13.739	.	voice	1G- 1b- 1dd-
.	.	'cause	.	.	.	.	.
.	.	I	.	.	.	.	.
.	.	played	.	.	.	.	.
.	.	the	.	.	.	.	.
.	.	fool	A	.	.	.	.
=9	=9	=9	=9	=9	=9	=9	=9
1I	A-:maj	_	.	15.681	.	voice	1A- 1cc 1ee-
.	.	_	.	.	.	.	.
.	.	.	.	.	.	.	.
.	.	Oh	.	.	.	.	.
.	.	no	.	.	.	.	.
.	.	no	.	.	.	.	.
=10	=10	=10	=10	=10	=10	=10	=10
1I	A-:maj	_	.	17.623	.	voice	1A- 1cc 1ee-
.	.	no	.	.	.	.	.
.	.	no	.	.	.	.	.
.	.	.	.	.	.	.	.
.	.	I'm	.	.	.	.	.
.	.	on-	.	.	.	.	.
.	.	-ly	.	.	.	.	.
=11	=11	=11	=11	=11	=11	=11	=11
*>Letter>C	*>Letter>C	*>Letter>C	*>Letter>C	*>Letter>C	*>Letter>C	*>Letter>C	*>Letter>C
*>Label>Verse	*>Label>Verse	*>Label>Verse	*>Label>Verse	*>Label>Verse	*>Label>Verse	*>Label>Verse	*>Label>Verse
1I	A-:maj	pay-	.	19.566	newline	voice	1A- 1cc 1ee-
.	.	-ing	.	.	.	.	.
.	.	the	.	.	.	.	.
.	.	price	B	.	.	.	.
.	.	_	.	.	.	.	.
.	.	_	.	.	.	.	.
=12	=12	=12	=12	=12	=12	=12	=12
2v	E-:min	.	.	21.512	.	voice	2E- 2g- 2b-
.	.	For	.	.	.	.	.
.	.	a	.	.	.	.	.
2IV	D-:maj	trip	.	22.485	.	voice	2D- 2f 2a-
.	.	I	.	.	.	.	.
.	.	took	.	.	.	.	.
.	.	to	.	.	.	.	.
=13	=13	=13	=13	=13	=13	=13	=13
1I	A-:maj	par-	.	23.458	.	voice	1A- 1cc 1ee-
.	.	-a-	.	.	.	.	.
.	.	-dise	B	.	.	.	.
.	.	_	.	.	.	.	.
.	.	_	.	.	.	.	.
=14	=14	=14	=14	=14	=14	=14	=14
2v	E-:min	.	.	25.404	.	voice	2E- 2g- 2b-
.	.	'cause	.	.	.	.	.
.	.	I	.	.	.	.	.
2IV	D-:maj	looked	.	26.377	.	voice	2D- 2f 2a-
.	.	in-	.	.	.	.	.
.	.	-to	.	.	.	.	.
.	.	a	.	.	.	.	.
=15	=15	=15	=15	=15	=15	=15	=15
1-VII	G-:maj	pair	.	27.35	newline	voice	1G- 1b- 1dd-
.	.	of	.	.	.	.	.
.	.	eyes	B	.	.	.	.
.	.	_	.	.	.	.	.
.	.	and	.	.	.	.	.
.	.	what	.	.	.	.	.
.	.	I	.	.	.	.	.
=16	=16	=16	=16	=16	=16	=16	=16
1IV	D-:maj	thought	.	29.279	.	voice	1D- 1f 1a-
.	.	was	.	.	.	.	.
.	.	the	.	.	.	.	.
.	.	look	.	.	.	.	.
.	.	of	.	.	.	.	.
.	.	love	.	.	.	.	.
=17	=17	=17	=17	=17	=17	=17	=17
1IV7	D-:maj7	_	.	31.208	.	voice	1D- 1f 1a- 1cc
=18	=18	=18	=18	=18	=18	=18	=18
1#ivo	D:dim	_	.	33.137	.	voice	1D 1f 1a-
.	.	.	.	.	.	.	.
.	.	Was	.	.	.	.	.
.	.	on-	.	.	.	.	.
.	.	-ly	.	.	.	.	.
=19	=19	=19	=19	=19	=19	=19	=19
2Ic	A-:maj/5	hurt	.	35.067	newline	voice	2a- 2cc 2E-
.	.	in	.	.	.	.	.
.	.	dis-	.	.	.	.	.
.	.	-guise	B	.	.	.	.
2I	A-:maj	_	.	36.049	.	voice	2A- 2cc 2ee-
=20	=20	=20	=20	=20	=20	=20	=20
1I	A-:maj	.	.	37.032	.	voice	1A- 1cc 1ee-
.	.	too	.	.	.	.	.
.	.	bad	.	.	.	.	.
.	.	_	.	.	.	.	.
.	.	I	.	.	.	.	.
.	.	did-	.	.	.	.	.
.	.	-n't	.	.	.	.	.
=21	=21	=21	=21	=21	=21	=21	=21
1I	A-:maj	re-	.	38.997	newline	voice	1A- 1cc 1ee-
.	.	-a-	.	.	.	.	.
.	.	-lize	B	.	.	.	.
.	.	_	.	.	.	.	.
=22	=22	=22	=22	=22	=22	=22	=22
1I	A-:maj	.	.	40.919	.	voice	1A- 1cc 1ee-
.	.	.	.	.	.	.	.
.	.	Oh,	.	.	.	.	.
.	.	_	.	.	.	.	.
.	.	but	.	.	.	.	.
.	.	don't	.	.	.	.	.
.	.	a-	.	.	.	.	.
=23	=23	=23	=23	=23	=23	=23	=23
1IVc	D-:maj/5	-po-	.	42.842	.	voice	1d- 1f 1A-
.	.	-lo-	.	.	.	.	.
.	.	-gize	B	.	.	.	.
.	.	_	.	.	.	.	.
=24	=24	=24	=24	=24	=24	=24	=24
1I	A-:maj	.	.	44.765	.	voice	1A- 1cc 1ee-
.	.	.	.	.	.	.	.
.	.	No	.	.	.	.	.
.	.	_	.	.	.	.	.
.	.	'cause	.	.	.	.	.
.	.	.	.	.	.	.	.
=25	=25	=25	=25	=25	=25	=25	=25
*>Letter>B	*>Letter>B	*>Letter>B	*>Letter>B	*>Letter>B	*>Letter>B	*>Letter>B	*>Letter>B
*>Label>Chorus	*>Label>Chorus	*>Label>Chorus	*>Label>Chorus	*>Label>Chorus	*>Label>Chorus	*>Label>Chorus	*>Label>Chorus
1I	A-:maj	I	.	46.688	newline	voice	1A- 1cc 1ee-
.	.	don't	.	.	.	.	.
.	.	blame	.	.	.	.	.
.	.	you	.	.	.	.	.
.	.	at	.	.	.	.	.
.	.	all	.	.	.	.	.
=26	=26	=26	=26	=26	=26	=26	=26
1-VII	G-:maj	_	.	48.625	.	voice	1G- 1b- 1dd-
.	.	'cause	.	.	.	.	.
.	.	you	.	.	.	.	.
.	.	played	.	.	.	.	.
.	.	it	.	.	.	.	.
.	.	cool	A	.	.	.	.
=27	=27	=27	=27	=27	=27	=27	=27
1I	A-:maj	_	.	50.561	.	voice	1A- 1cc 1ee-
.	.	_	.	.	.	.	.
.	.	.	.	.	.	.	.
.	.	I	.	.	.	.	.
.	.	should-	.	.	.	.	.
.	.	-'ve	.	.	.	.	.
=28	=28	=28	=28	=28	=28	=28	=28
1I	A-:maj	did	.	52.498	.	voice	1A- 1cc 1ee-
.	.	it	.	.	.	.	.
.	.	my-	.	.	.	.	.
.	.	-self	.	.	.	.	.
.	.	_	.	.	.	.	.
.	.	.	.	.	.	.	.
=29	=29	=29	=29	=29	=29	=29	=29
1I	A-:maj	You	.	54.435	newline	voice	1A- 1cc 1ee-
.	.	don't	.	.	.	.	.
.	.	owe	.	.	.	.	.
.	.	me	.	.	.	.	.
.	.	a	.	.	.	.	.
.	.	thing	.	.	.	.	.
=30	=30	=30	=30	=30	=30	=30	=30
1-VII	G-:maj	_	.	56.361	.	voice	1G- 1b- 1dd-
.	.	'cause	.	.	.	.	.
.	.	I	.	.	.	.	.
.	.	played	.	.	.	.	.
.	.	the	.	.	.	.	.
.	.	fool	A	.	.	.	.
=31	=31	=31	=31	=31	=31	=31	=31
1I	A-:maj	_	.	58.288	.	voice	1A- 1cc 1ee-
.	.	_	.	.	.	.	.
.	.	.	.	.	.	.	.
.	.	Oh	.	.	.	.	.
.	.	no	.	.	.	.	.
.	.	no	.	.	.	.	.
=32	=32	=32	=32	=32	=32	=32	=32
1I	A-:maj	_	.	60.215	.	voice	1A- 1cc 1ee-
.	.	no	.	.	.	.	.
.	.	no	.	.	.	.	.
.	.	.	.	.	.	.	.
.	.	I	.	.	.	.	.
.	.	think	.	.	.	.	.
.	.	it's	.	.	.	.	.
=33	=33	=33	=33	=33	=33	=33	=33
*>Letter>C	*>Letter>C	*>Letter>C	*>Letter>C	*>Letter>C	*>Letter>C	*>Letter>C	*>Letter>C
*>Label>Verse	*>Label>Verse	*>Label>Verse	*>Label>Verse	*>Label>Verse	*>Label>Verse	*>Label>Verse	*>Label>Verse
1I	A-:maj	pret-	.	62.141	newline	voice	1A- 1cc 1ee-
.	.	-ty	.	.	.	.	.
.	.	plain	C	.	.	.	.
.	.	_	.	.	.	.	.
.	.	_	.	.	.	.	.
=34	=34	=34	=34	=34	=34	=34	=34
2v	E-:min	.	.	64.071	.	voice	2E- 2g- 2b-
.	.	Hold-	.	.	.	.	.
.	.	-in'	.	.	.	.	.
2IV	D-:maj	you	.	65.036	.	voice	2D- 2f 2a-
.	.	would	.	.	.	.	.
.	.	take	.	.	.	.	.
.	.	a	.	.	.	.	.
=35	=35	=35	=35	=35	=35	=35	=35
1I	A-:maj	ball	.	66.001	.	voice	1A- 1cc 1ee-
.	.	and	.	.	.	.	.
.	.	chain	C	.	.	.	.
.	.	_	.	.	.	.	.
.	.	_	.	.	.	.	.
.	.	.	.	.	.	.	.
=36	=36	=36	=36	=36	=36	=36	=36
2v	E-:min	.	.	67.931	.	voice	2E- 2g- 2b-
.	.	Ev'-	.	.	.	.	.
.	.	-ry	.	.	.	.	.
2IV	D-:maj	bet	.	68.896	.	voice	2D- 2f 2a-
.	.	I	.	.	.	.	.
.	.	made	.	.	.	.	.
.	.	was	.	.	.	.	.
=37	=37	=37	=37	=37	=37	=37	=37
1-VII	G-:maj	all	.	69.861	newline	voice	1G- 1b- 1dd-
.	.	in	.	.	.	.	.
.	.	vain	C	.	.	.	.
.	.	_	.	.	.	.	.
.	.	'cause	.	.	.	.	.
.	.	what	.	.	.	.	.
.	.	I	.	.	.	.	.
=38	=38	=38	=38	=38	=38	=38	=38
1IV	D-:maj	thought	.	71.795	.	voice	1D- 1f 1a-
.	.	was	.	.	.	.	.
.	.	an	.	.	.	.	.
.	.	ocean	.	.	.	.	.
.	.	of	.	.	.	.	.
.	.	_	.	.	.	.	.
.	.	love	.	.	.	.	.
=39	=39	=39	=39	=39	=39	=39	=39
1IV	D-:maj	_	.	73.728	.	voice	1D- 1f 1a-
.	.	_	.	.	.	.	.
.	.	_	.	.	.	.	.
.	.	_	.	.	.	.	.
=40	=40	=40	=40	=40	=40	=40	=40
1#ivo	D:dim	_	.	75.661	.	voice	1D 1f 1a-
.	.	.	.	.	.	.	.
.	.	Was	.	.	.	.	.
.	.	just	.	.	.	.	.
.	.	a	.	.	.	.	.
=41	=41	=41	=41	=41	=41	=41	=41
2Ic	A-:maj/5	wee	.	77.594	newline	voice	2a- 2cc 2E-
.	.	drop	.	.	.	.	.
.	.	of	.	.	.	.	.
.	.	rain	C	.	.	.	.
2I	A-:maj	_	.	78.555	.	voice	2A- 2cc 2ee-
.	.	.	.	.	.	.	.
=42	=42	=42	=42	=42	=42	=42	=42
1I	A-:maj	.	.	79.515	.	voice	1A- 1cc 1ee-
.	.	too	.	.	.	.	.
.	.	bad	.	.	.	.	.
.	.	_	.	.	.	.	.
.	.	that	.	.	.	.	.
.	.	it	.	.	.	.	.
=43	=43	=43	=43	=43	=43	=43	=43
1I	A-:maj	could-	.	81.436	newline	voice	1A- 1cc 1ee-
.	.	-dn't	.	.	.	.	.
.	.	rain	C	.	.	.	.
.	.	_	.	.	.	.	.
=44	=44	=44	=44	=44	=44	=44	=44
1I	A-:maj	.	.	83.361	.	voice	1A- 1cc 1ee-
.	.	.	.	.	.	.	.
.	.	Oh,	.	.	.	.	.
.	.	_	.	.	.	.	.
.	.	but	.	.	.	.	.
.	.	you	.	.	.	.	.
.	.	don't	.	.	.	.	.
=45	=45	=45	=45	=45	=45	=45	=45
1IVc	D-:maj/5	have	.	85.285	.	voice	1d- 1f 1A-
.	.	to	.	.	.	.	.
.	.	ex-	.	.	.	.	.
.	.	-plain	C	.	.	.	.
.	.	_	.	.	.	.	.
=46	=46	=46	=46	=46	=46	=46	=46
1I	A-:maj	.	.	87.209	.	voice	1A- 1cc 1ee-
.	.	.	.	.	.	.	.
.	.	No	.	.	.	.	.
.	.	_	.	.	.	.	.
.	.	'cause	.	.	.	.	.
.	.	.	.	.	.	.	.
=47	=47	=47	=47	=47	=47	=47	=47
*>Letter>B	*>Letter>B	*>Letter>B	*>Letter>B	*>Letter>B	*>Letter>B	*>Letter>B	*>Letter>B
*>Label>Chorus	*>Label>Chorus	*>Label>Chorus	*>Label>Chorus	*>Label>Chorus	*>Label>Chorus	*>Label>Chorus	*>Label>Chorus
1I	A-:maj	I	.	89.134	newline	voice	1A- 1cc 1ee-
.	.	don't	.	.	.	.	.
.	.	blame	.	.	.	.	.
.	.	you	.	.	.	.	.
.	.	at	.	.	.	.	.
.	.	all	.	.	.	.	.
=48	=48	=48	=48	=48	=48	=48	=48
1-VII	G-:maj	_	.	91.065	.	voice	1G- 1b- 1dd-
.	.	'cause	.	.	.	.	.
.	.	you	.	.	.	.	.
.	.	played	.	.	.	.	.
.	.	it	.	.	.	.	.
.	.	cool	A	.	.	.	.
=49	=49	=49	=49	=49	=49	=49	=49
1I	A-:maj	_	.	92.997	.	voice	1A- 1cc 1ee-
.	.	_	.	.	.	.	.
.	.	.	.	.	.	.	.
.	.	I	.	.	.	.	.
.	.	should-	.	.	.	.	.
.	.	-'ve	.	.	.	.	.
=50	=50	=50	=50	=50	=50	=50	=50
1I	A-:maj	did	.	94.929	.	voice	1A- 1cc 1ee-
.	.	it	.	.	.	.	.
.	.	my-	.	.	.	.	.
.	.	-self	.	.	.	.	.
.	.	_	.	.	.	.	.
.	.	.	.	.	.	.	.
=51	=51	=51	=51	=51	=51	=51	=51
1I	A-:maj	You	.	96.86	newline	voice	1A- 1cc 1ee-
.	.	don't	.	.	.	.	.
.	.	owe	.	.	.	.	.
.	.	me	.	.	.	.	.
.	.	a	.	.	.	.	.
.	.	thing	.	.	.	.	.
=52	=52	=52	=52	=52	=52	=52	=52
1-VII	G-:maj	_	.	98.807	.	voice	1G- 1b- 1dd-
.	.	'cause	.	.	.	.	.
.	.	I	.	.	.	.	.
.	.	played	.	.	.	.	.
.	.	the	.	.	.	.	.
.	.	fool	A	.	.	.	.
=53	=53	=53	=53	=53	=53	=53	=53
1I	A-:maj	_	.	100.754	.	voice	1A- 1cc 1ee-
.	.	_	.	.	.	.	.
.	.	.	.	.	.	.	.
.	.	Oh	.	.	.	.	.
.	.	no	.	.	.	.	.
.	.	no	.	.	.	.	.
=54	=54	=54	=54	=54	=54	=54	=54
1I	A-:maj	_	.	102.7	.	voice	1A- 1cc 1ee-
.	.	no	.	.	.	.	.
.	.	no	.	.	.	.	.
.	.	_	.	.	.	.	.
.	.	no	.	.	.	.	.
.	.	.	.	.	.	.	.
=55	=55	=55	=55	=55	=55	=55	=55
*>Letter>B	*>Letter>B	*>Letter>B	*>Letter>B	*>Letter>B	*>Letter>B	*>Letter>B	*>Letter>B
*>Label>Chorus	*>Label>Chorus	*>Label>Chorus	*>Label>Chorus	*>Label>Chorus	*>Label>Chorus	*>Label>Chorus	*>Label>Chorus
1I	A-:maj	I	.	104.647	newline	voice	1A- 1cc 1ee-
.	.	don't	.	.	.	.	.
.	.	_	.	.	.	.	.
.	.	blame	.	.	.	.	.
.	.	you	.	.	.	.	.
.	.	at	.	.	.	.	.
.	.	all	.	.	.	.	.
=56	=56	=56	=56	=56	=56	=56	=56
1-VII	G-:maj	_	.	106.563	.	voice	1G- 1b- 1dd-
.	.	'cause	.	.	.	.	.
.	.	you	.	.	.	.	.
.	.	played	.	.	.	.	.
.	.	it	.	.	.	.	.
.	.	cool	A	.	.	.	.
=57	=57	=57	=57	=57	=57	=57	=57
1I	A-:maj	_	.	108.478	.	voice	1A- 1cc 1ee-
.	.	_	.	.	.	.	.
.	.	.	.	.	.	.	.
.	.	that's	.	.	.	.	.
.	.	the	.	.	.	.	.
=58	=58	=58	=58	=58	=58	=58	=58
1I	A-:maj	thing	.	110.394	.	voice	1A- 1cc 1ee-
.	.	to	.	.	.	.	.
.	.	do	.	.	.	.	.
.	.	_	.	.	.	.	.
.	.	_	.	.	.	.	.
.	.	.	.	.	.	.	.
.	.	.	.	.	.	.	.
=59	=59	=59	=59	=59	=59	=59	=59
1I	A-:maj	You	.	112.309	newline	voice	1A- 1cc 1ee-
.	.	don't	.	.	.	.	.
.	.	_	.	.	.	.	.
.	.	owe	.	.	.	.	.
.	.	me	.	.	.	.	.
.	.	a	.	.	.	.	.
.	.	thing	.	.	.	.	.
=60	=60	=60	=60	=60	=60	=60	=60
1-VII	G-:maj	_	.	114.21	.	voice	1G- 1b- 1dd-
.	.	'cause	.	.	.	.	.
.	.	I	.	.	.	.	.
.	.	played	.	.	.	.	.
.	.	the	.	.	.	.	.
.	.	fool	A	.	.	.	.
=61	=61	=61	=61	=61	=61	=61	=61
1I	A-:maj	_	.	116.111	.	voice	1A- 1cc 1ee-
.	.	_	.	.	.	.	.
.	.	.	.	.	.	.	.
.	.	Oh	.	.	.	.	.
.	.	no	.	.	.	.	.
.	.	no	.	.	.	.	.
=62	=62	=62	=62	=62	=62	=62	=62
1I	A-:maj	_	.	118.012	.	voice	1A- 1cc 1ee-
.	.	no	.	.	.	.	.
.	.	no	.	.	.	.	.
.	.	_	.	.	.	.	.
.	.	no	.	.	.	.	.
.	.	.	.	.	.	.	.
=63	=63	=63	=63	=63	=63	=63	=63
*>Letter>C2	*>Letter>C2	*>Letter>C2	*>Letter>C2	*>Letter>C2	*>Letter>C2	*>Letter>C2	*>Letter>C2
*>Label>Verse	*>Label>Verse	*>Label>Verse	*>Label>Verse	*>Label>Verse	*>Label>Verse	*>Label>Verse	*>Label>Verse
1I	A-:maj	yeah	.	119.913	newline	strings	1A- 1cc 1ee-
=64	=64	=64	=64	=64	=64	=64	=64
2v	E-:min	.	.	121.853	.	strings	1E- 1g- 1b-
2IV	D-:maj	.	.	122.824	.	strings	2D- 2f 2a-
=65	=65	=65	=65	=65	=65	=65	=65
1I	A-:maj	.	.	123.794	.	strings	1A- 1cc 1ee-
=66	=66	=66	=66	=66	=66	=66	=66
2v	E-:min	.	.	125.734	.	strings	1E- 1g- 1b-
2IV	D-:maj	.	.	126.705	.	strings	2D- 2f 2a-
=67	=67	=67	=67	=67	=67	=67	=67
1I	A-:maj	.	.	127.675	newline	strings	1A- 1cc 1ee-
=68	=68	=68	=68	=68	=68	=68	=68
2v	E-:min	.	.	129.592	.	strings	1E- 1g- 1b-
2IV	D-:maj	.	.	130.551	.	strings	2D- 2f 2a-
=69	=69	=69	=69	=69	=69	=69	=69
1I	A-:maj	ooh	.	131.51	.	strings	1A- 1cc 1ee-
=70	=70	=70	=70	=70	=70	=70	=70
1-VII	G-:maj	_	.	133.428	.	strings	1G- 1b- 1dd-
.	.	.	.	.	.	.	.
.	.	I	.	.	.	.	.
.	.	said	.	.	.	.	.
=71	=71	=71	=71	=71	=71	=71	=71
1IV	D-:maj	_	.	135.345	newline	voice	1D- 1f 1a-
.	.	.	.	.	.	.	.
.	.	What	.	.	.	.	.
.	.	I	.	.	.	.	.
=72	=72	=72	=72	=72	=72	=72	=72
1IV	D-:maj	thought	.	137.261	.	voice	1D- 1f 1a-
.	.	was	.	.	.	.	.
.	.	sure	.	.	.	.	.
.	.	to	.	.	.	.	.
.	.	last	.	.	.	.	.
=73	=73	=73	=73	=73	=73	=73	=73
1IV	D-:maj	_	.	139.177	.	voice	1D- 1f 1a-
.	.	.	.	.	.	.	.
.	.	Sure	.	.	.	.	.
.	.	to	.	.	.	.	.
.	.	last	.	.	.	.	.
=74	=74	=74	=74	=74	=74	=74	=74
1#ivo	D:dim	_	.	141.093	.	voice	1D 1f 1a-
.	.	.	.	.	.	.	.
.	.	Was	.	.	.	.	.
.	.	just	.	.	.	.	.
.	.	a	.	.	.	.	.
=75	=75	=75	=75	=75	=75	=75	=75
2Ic	A-:maj/5	mi-	.	143.009	newline	voice	2a- 2cc 2E-
.	.	-nute	.	.	.	.	.
.	.	in-	.	.	.	.	.
.	.	-stead	D	.	.	.	.
2I	A-:maj	_	.	143.965	.	voice	2A- 2cc 2ee-
=76	=76	=76	=76	=76	=76	=76	=76
1I	A-:maj	.	.	144.92	.	voice	1A- 1cc 1ee-
.	.	Too	.	.	.	.	.
.	.	bad	.	.	.	.	.
.	.	_	.	.	.	.	.
.	.	that	.	.	.	.	.
.	.	I	.	.	.	.	.
=77	=77	=77	=77	=77	=77	=77	=77
1I	A-:maj	got	.	146.832	newline	voice	1A- 1cc 1ee-
.	.	mis-	.	.	.	.	.
.	.	-led	D	.	.	.	.
.	.	_	.	.	.	.	.
=78	=78	=78	=78	=78	=78	=78	=78
1I	A-:maj	.	.	148.735	.	voice	1A- 1cc 1ee-
.	.	Ah,	.	.	.	.	.
.	.	_	.	.	.	.	.
.	.	but	.	.	.	.	.
.	.	you	.	.	.	.	.
.	.	don't	.	.	.	.	.
.	.	have	.	.	.	.	.
.	.	to	.	.	.	.	.
=79	=79	=79	=79	=79	=79	=79	=79
2IVc	D-:maj/5	hang	.	150.638	.	voice	2d- 2f 2A-
.	.	your	.	.	.	.	.
.	.	head	D	.	.	.	.
2I	A-:maj	_	.	151.59	.	voice	2A- 2cc 2ee-
=80	=80	=80	=80	=80	=80	=80	=80
1I	A-:maj	.	.	152.542	.	voice	1A- 1cc 1ee-
.	.	.	.	.	.	.	.
.	.	No	.	.	.	.	.
.	.	_	.	.	.	.	.
.	.	'cause	.	.	.	.	.
.	.	.	.	.	.	.	.
=81	=81	=81	=81	=81	=81	=81	=81
*>Letter>B	*>Letter>B	*>Letter>B	*>Letter>B	*>Letter>B	*>Letter>B	*>Letter>B	*>Letter>B
*>Label>Chorus	*>Label>Chorus	*>Label>Chorus	*>Label>Chorus	*>Label>Chorus	*>Label>Chorus	*>Label>Chorus	*>Label>Chorus
1I	A-:maj	I	.	154.445	newline	voice	1A- 1cc 1ee-
.	.	don't	.	.	.	.	.
.	.	_	.	.	.	.	.
.	.	blame	.	.	.	.	.
.	.	you	.	.	.	.	.
.	.	at	.	.	.	.	.
.	.	all	.	.	.	.	.
=82	=82	=82	=82	=82	=82	=82	=82
1-VII	G-:maj	_	.	156.363	.	voice	1G- 1b- 1dd-
.	.	'cause	.	.	.	.	.
.	.	you	.	.	.	.	.
.	.	played	.	.	.	.	.
.	.	it	.	.	.	.	.
.	.	cool	A	.	.	.	.
=83	=83	=83	=83	=83	=83	=83	=83
1I	A-:maj	_	.	158.282	.	voice	1A- 1cc 1ee-
.	.	_	.	.	.	.	.
.	.	.	.	.	.	.	.
.	.	I	.	.	.	.	.
.	.	should-	.	.	.	.	.
.	.	-'ve	.	.	.	.	.
=84	=84	=84	=84	=84	=84	=84	=84
1I	A-:maj	did	.	160.2	.	voice	1A- 1cc 1ee-
.	.	it	.	.	.	.	.
.	.	my-	.	.	.	.	.
.	.	-self	.	.	.	.	.
.	.	_	.	.	.	.	.
.	.	.	.	.	.	.	.
=85	=85	=85	=85	=85	=85	=85	=85
1I	A-:maj	You	.	162.119	newline	voice	1A- 1cc 1ee-
.	.	don't	.	.	.	.	.
.	.	_	.	.	.	.	.
.	.	owe	.	.	.	.	.
.	.	me	.	.	.	.	.
.	.	a	.	.	.	.	.
.	.	thing	.	.	.	.	.
=86	=86	=86	=86	=86	=86	=86	=86
1-VII	G-:maj	_	.	164.053	.	voice	1G- 1b- 1dd-
.	.	'cause	.	.	.	.	.
.	.	I	.	.	.	.	.
.	.	played	.	.	.	.	.
.	.	the	.	.	.	.	.
.	.	fool	A	.	.	.	.
=87	=87	=87	=87	=87	=87	=87	=87
1I	A-:maj	_	.	165.986	.	voice	1A- 1cc 1ee-
.	.	_	.	.	.	.	.
.	.	.	.	.	.	.	.
.	.	no	.	.	.	.	.
.	.	no	.	.	.	.	.
=88	=88	=88	=88	=88	=88	=88	=88
1I	A-:maj	_	.	167.92	.	voice	1A- 1cc 1ee-
.	.	no	.	.	.	.	.
.	.	no	.	.	.	.	.
.	.	_	.	.	.	.	.
.	.	no	.	.	.	.	.
.	.	.	.	.	.	.	.
=89	=89	=89	=89	=89	=89	=89	=89
*>Letter>B	*>Letter>B	*>Letter>B	*>Letter>B	*>Letter>B	*>Letter>B	*>Letter>B	*>Letter>B
*>Label>Chorus	*>Label>Chorus	*>Label>Chorus	*>Label>Chorus	*>Label>Chorus	*>Label>Chorus	*>Label>Chorus	*>Label>Chorus
1I	A-:maj	I	.	169.854	newline	voice	1A- 1cc 1ee-
.	.	don't	.	.	.	.	.
.	.	blame	.	.	.	.	.
.	.	you	.	.	.	.	.
.	.	at	.	.	.	.	.
.	.	all	.	.	.	.	.
=90	=90	=90	=90	=90	=90	=90	=90
1-VII	G-:maj	_	.	171.766	.	voice	1G- 1b- 1dd-
.	.	'cause	.	.	.	.	.
.	.	you	.	.	.	.	.
.	.	played	.	.	.	.	.
.	.	it	.	.	.	.	.
.	.	cool	A	.	.	.	.
=91	=91	=91	=91	=91	=91	=91	=91
1I	A-:maj	_	.	173.679	.	voice	1A- 1cc 1ee-
.	.	_	.	.	.	.	.
.	.	.	.	.	.	.	.
.	.	'cause	.	.	.	.	.
.	.	that's	.	.	.	.	.
.	.	the	.	.	.	.	.
=92	=92	=92	=92	=92	=92	=92	=92
1I	A-:maj	thing	.	175.591	.	voice	1A- 1cc 1ee-
.	.	to	.	.	.	.	.
.	.	do	.	.	.	.	.
.	.	_	.	.	.	.	.
.	.	.	.	.	.	.	.
=93	=93	=93	=93	=93	=93	=93	=93
*>Label>>Fadeout	*>Label>>Fadeout	*>Label>>Fadeout	*>Label>>Fadeout	*>Label>>Fadeout	*>Label>>Fadeout	*>Label>>Fadeout	*>Label>>Fadeout
1I	A-:maj	You	.	177.504	newline	voice	1A- 1cc 1ee-
.	.	don't	.	.	.	.	.
.	.	owe	.	.	.	.	.
.	.	me	.	.	.	.	.
.	.	a	.	.	.	.	.
.	.	thing	.	.	.	.	.
=94	=94	=94	=94	=94	=94	=94	=94
1-VII	G-:maj	_	.	179.411	.	voice	1G- 1b- 1dd-
.	.	'cause	.	.	.	.	.
.	.	I	.	.	.	.	.
.	.	played	.	.	.	.	.
.	.	the	.	.	.	.	.
.	.	fool	A	.	.	.	.
=95	=95	=95	=95	=95	=95	=95	=95
1I	A-:maj	_	.	181.318	.	voice	1A- 1cc 1ee-
.	.	_	.	.	.	.	.
.	.	.	.	.	.	.	.
.	.	Oh	.	.	.	.	.
.	.	no	.	.	.	.	.
.	.	no	.	.	.	.	.
=96	=96	=96	=96	=96	=96	=96	=96
1I	A-:maj	_	.	183.226	.	voice	1A- 1cc 1ee-
.	.	no	.	.	.	.	.
.	.	no	.	.	.	.	.
.	.	_	.	.	.	.	.
.	.	no	.	.	.	.	.
.	.	.	.	.	.	.	.
=97	=97	=97	=97	=97	=97	=97	=97
1I	A-:maj	I	.	185.133	newline	voice	1A- 1cc 1ee-
.	.	don't	.	.	.	.	.
.	.	_	.	.	.	.	.
.	.	blame	.	.	.	.	.
.	.	you	.	.	.	.	.
.	.	at	.	.	.	.	.
.	.	all	.	.	.	.	.
=98	=98	=98	=98	=98	=98	=98	=98
1-VII	G-:maj	_	.	186.067	.	voice	1G- 1b- 1dd-
.	.	'cause	.	.	.	.	.
.	.	you	.	.	.	.	.
.	.	played	.	.	.	.	.
.	.	it	.	.	.	.	.
.	.	cool	A	.	.	.	.
=99	=99	=99	=99	=99	=99	=99	=99
1I	A-:maj	_	.	187.002	.	voice	1A- 1cc 1ee-
.	.	_	.	.	.	.	.
.	.	.	.	.	.	.	.
=100	=100	=100	=100	=100	=100	=100	=100
1I	A-:maj	.	.	187.937	.	voice	1A- 1cc 1ee-
1r;	N	.	.	188.871	.	r	1r;
1r;	N	.	.	192.209	.	r	1r;
*-	*-	*-	*-	*-	*-	*-	*-
!!!BillboardChartDate: 1971/04/03
!!!BillboardPeak: 18
!!!BillboardWeeksOnChart: 12
!!!COC: The Miracles
!!!ENC: Nathaniel Condit-Schultz
!!!EST: Awating manual error checking and editing.
!!!OTL: I Don't Blame You At All
!!!RDF**harte: Chris Harte's syntax, used by MIREX
!!!RDF**harmony: **recip + pitch class of root + harmonic quality
!!!RDF**leadinstrument: original McGill primary instrumentation annotation
!!!RDF**phrase: newline = linebreak in original McGill transcription
!!!RDF**timestamp: McGill audio timestamp in seconds
!!!RDT: 2017/01/12/
!!!SampleActualRank: 50
!!!SampleID#: 0582
!!!SampleTargetRank: 52
!!!MBID: e5f43de3-7560-4bab-9a8e-0e86fed849bb
